icon-themes/sukapura_dark_svg/res/pin_document.svg

<svg height="24" viewBox="0 0 24 24" width="24" xmlns="http://www.w3.org/2000/svg"><path d="m23.558594 6.242188-5.796875-5.800782c-.582031-.582031-1.523438-.582031-2.109375-.003906-.078125.078125-.144532.164062-.207032.257812l-4.125 6.484376c-1.867187-.445313-3.835937-.15625-5.5.804687-.710937.414063-.949218 1.328125-.53125 2.039063.0625.109374.140626.210937.230469.300781l8.15625 8.152343c.328125.324219.785157.480469 1.242188.425782.460937-.058594.871093-.324219 1.105469-.726563.964843-1.660156 1.253906-3.632812.804687-5.5l6.480469-4.125c.695312-.441406.902344-1.359375.460937-2.054687-.058593-.09375-.128906-.175782-.203125-.253906zm-6.238282-2.867188-2.128906 3.355469c-.15625.230469-.460937.296875-.695312.152343-.234375-.148437-.304688-.457031-.15625-.691406l2.136718-3.355468c.136719-.238282.445313-.324219.683594-.183594.242188.136718.324219.445312.1875.6875zm0 0"/><path d="m6.417969 15.449219-5.976563 5.976562c-.589844.589844-.589844 1.542969 0 2.132813v.003906c.59375.578125 1.542969.578125 2.136719 0l5.976563-5.976562c.597656-.582032.613281-1.535157.035156-2.136719-.578125-.597657-1.535156-.613281-2.132813-.035157zm0 0"/></svg>

<?xml version="1.0" encoding="UTF-8"?>
<svg xmlns="http://www.w3.org/2000/svg" xmlns:xlink="http://www.w3.org/1999/xlink" width="24px" height="24px" viewBox="0 0 24 24" version="1.1">
<g id="surface1">
<path style=" stroke:none;fill-rule:nonzero;fill:rgb(0%,0%,0%);fill-opacity:1;" d="M 23.558594 6.242188 L 17.761719 0.441406 C 17.179688 -0.140625 16.238281 -0.140625 15.652344 0.4375 C 15.574219 0.515625 15.507812 0.601562 15.445312 0.695312 L 11.320312 7.179688 C 9.453125 6.734375 7.484375 7.023438 5.820312 7.984375 C 5.109375 8.398438 4.871094 9.3125 5.289062 10.023438 C 5.351562 10.132812 5.429688 10.234375 5.519531 10.324219 L 13.675781 18.476562 C 14.003906 18.800781 14.460938 18.957031 14.917969 18.902344 C 15.378906 18.84375 15.789062 18.578125 16.023438 18.175781 C 16.988281 16.515625 17.277344 14.542969 16.828125 12.675781 L 23.308594 8.550781 C 24.003906 8.109375 24.210938 7.191406 23.769531 6.496094 C 23.710938 6.402344 23.640625 6.320312 23.566406 6.242188 Z M 17.320312 3.375 L 15.191406 6.730469 C 15.035156 6.960938 14.730469 7.027344 14.496094 6.882812 C 14.261719 6.734375 14.191406 6.425781 14.339844 6.191406 L 16.476562 2.835938 C 16.613281 2.597656 16.921875 2.511719 17.160156 2.652344 C 17.402344 2.789062 17.484375 3.097656 17.347656 3.339844 Z M 17.320312 3.375 "/>
<path style=" stroke:none;fill-rule:nonzero;fill:rgb(0%,0%,0%);fill-opacity:1;" d="M 6.417969 15.449219 L 0.441406 21.425781 C -0.148438 22.015625 -0.148438 22.96875 0.441406 23.558594 L 0.441406 23.5625 C 1.035156 24.140625 1.984375 24.140625 2.578125 23.5625 L 8.554688 17.585938 C 9.152344 17.003906 9.167969 16.050781 8.589844 15.449219 C 8.011719 14.851562 7.054688 14.835938 6.457031 15.414062 Z M 6.417969 15.449219 "/>
</g>
</svg>
